Case/3mm acrylic/0.1mm kerf/YAEMK-bottom.svg

<?xml version="1.0" encoding="UTF-8" standalone="no"?>
<svg
   xmlns:dc="http://purl.org/dc/elements/1.1/"
   xmlns:cc="http://creativecommons.org/ns#"
   xmlns:rdf="http://www.w3.org/1999/02/22-rdf-syntax-ns#"
   xmlns:svg="http://www.w3.org/2000/svg"
   xmlns="http://www.w3.org/2000/svg"
   xmlns:sodipodi="http://sodipodi.sourceforge.net/DTD/sodipodi-0.dtd"
   xmlns:inkscape="http://www.inkscape.org/namespaces/inkscape"
   version="1.1"
   width="16.59112cm"
   height="13.08592cm"
   viewBox="0 0 65319.371 51519.37"
   id="svg1820"
   sodipodi:docname="YAEMK-bottom.svg"
   inkscape:version="1.0.2 (e86c870879, 2021-01-15)">
  <metadata
     id="metadata1826">
    <rdf:RDF>
      <cc:Work
         rdf:about="">
        <dc:format>image/svg+xml</dc:format>
        <dc:type
           rdf:resource="http://purl.org/dc/dcmitype/StillImage" />
        <dc:title>SVG Picture created as YAEMK-brd.svg date 2021/03/19 11:43:02 </dc:title>
      </cc:Work>
    </rdf:RDF>
  </metadata>
  <defs
     id="defs1824" />
  <sodipodi:namedview
     pagecolor="#ffffff"
     bordercolor="#666666"
     borderopacity="1"
     objecttolerance="10"
     gridtolerance="10"
     guidetolerance="10"
     inkscape:pageopacity="0"
     inkscape:pageshadow="2"
     inkscape:window-width="1914"
     inkscape:window-height="2106"
     id="namedview1822"
     showgrid="false"
     inkscape:zoom="1.3071516"
     inkscape:cx="208.60908"
     inkscape:cy="306.87014"
     inkscape:window-x="26"
     inkscape:window-y="23"
     inkscape:window-maximized="0"
     inkscape:current-layer="g798"
     inkscape:document-rotation="0"
     fit-margin-top="0"
     fit-margin-left="0"
     fit-margin-right="0"
     fit-margin-bottom="0" />
  <title
     id="title2">SVG Picture created as YAEMK-brd.svg date 2021/03/19 11:43:02 </title>
  <desc
     id="desc4">Picture generated by PCBNEW </desc>
  <g
     style="fill:#000000;fill-opacity:1;stroke:#000000;stroke-linecap:round;stroke-linejoin:round;stroke-opacity:1"
     id="g6"
     transform="translate(-1790.315,-2120.315)" />
  <g
     style="fill:#000000;fill-opacity:0;stroke:#000000;stroke-width:-0.000393701;stroke-linecap:round;stroke-linejoin:round;stroke-opacity:1"
     id="g8"
     transform="translate(-1790.315,-2120.315)" />
  <g
     style="fill:#000000;fill-opacity:0;stroke:#000000;stroke-width:47.2441;stroke-linecap:round;stroke-linejoin:round;stroke-opacity:1"
     id="g798"
     transform="translate(-1790.315,-2120.315)">
    <circle
       cx="7790"
       cy="35900"
       r="511.811"
       id="circle316"
       style="stroke-width:39.3701;stroke-miterlimit:4;stroke-dasharray:none" />
    <circle
       cx="40600"
       cy="32900"
       r="511.811"
       id="circle320"
       style="stroke-width:39.3701;stroke-miterlimit:4;stroke-dasharray:none" />
    <circle
       cx="29050"
       cy="20450"
       r="511.811"
       id="circle324"
       style="stroke-width:39.3701;stroke-miterlimit:4;stroke-dasharray:none" />
    <circle
       cx="29050"
       cy="4600"
       r="511.811"
       id="circle328"
       style="stroke-width:39.3701;stroke-miterlimit:4;stroke-dasharray:none" />
    <circle
       cx="51498.801"
       cy="20554.699"
       r="511.811"
       id="circle332"
       style="stroke-width:39.3701;stroke-miterlimit:4;stroke-dasharray:none" />
    <circle
       cx="54950"
       cy="40900"
       r="511.811"
       id="circle336"
       style="stroke-width:39.3701;stroke-miterlimit:4;stroke-dasharray:none" />
    <circle
       cx="20950"
       cy="47285"
       r="511.811"
       id="circle340"
       style="stroke-width:39.3701;stroke-miterlimit:4;stroke-dasharray:none" />
    <circle
       cx="59360.398"
       cy="9230"
       r="511.811"
       id="circle344"
       style="stroke-width:39.3701;stroke-miterlimit:4;stroke-dasharray:none" />
    <circle
       cx="7790"
       cy="10360"
       r="511.811"
       id="circle348"
       style="stroke-width:39.3701;stroke-miterlimit:4;stroke-dasharray:none" />
    <g
       id="g360" />
    <g
       id="g362" />
    <g
       id="g364" />
    <g
       id="g366" />
    <g
       id="g368" />
    <g
       id="g370" />
    <g
       id="g372" />
    <g
       id="g374" />
    <g
       id="g376" />
    <g
       id="g378" />
    <g
       id="g380" />
    <g
       id="g382" />
    <g
       id="g384" />
    <g
       id="g386" />
    <g
       id="g388" />
    <g
       id="g390" />
    <g
       id="g392" />
    <g
       id="g394" />
    <g
       id="g396" />
    <g
       id="g398" />
    <g
       id="g400" />
    <g
       id="g402" />
    <g
       id="g404" />
    <g
       id="g406" />
    <g
       id="g408" />
    <g
       id="g410" />
    <g
       id="g412" />
    <g
       id="g414" />
    <g
       id="g416" />
    <g
       id="g418" />
    <g
       id="g420" />
    <g
       id="g422" />
    <g
       id="g424" />
    <g
       id="g426" />
    <g
       id="g428" />
    <g
       id="g430" />
    <g
       id="g432" />
    <g
       id="g434" />
    <g
       id="g436" />
    <g
       id="g438" />
    <g
       id="g440" />
    <g
       id="g442" />
    <g
       id="g444" />
    <g
       id="g446" />
    <g
       id="g448" />
    <g
       id="g450" />
    <g
       id="g452" />
    <g
       id="g454" />
    <g
       id="g456" />
    <g
       id="g458" />
    <g
       id="g460" />
    <g
       id="g462" />
    <g
       id="g464" />
    <g
       id="g466" />
    <g
       id="g468" />
    <g
       id="g470" />
    <g
       id="g472" />
    <g
       id="g474" />
    <g
       id="g476" />
    <g
       id="g478" />
    <g
       id="g480" />
    <g
       id="g482" />
    <g
       id="g484" />
    <g
       id="g486" />
    <g
       id="g488" />
    <g
       id="g490" />
    <g
       id="g492" />
    <g
       id="g494" />
    <g
       id="g496" />
    <g
       id="g498" />
    <g
       id="g500" />
    <g
       id="g502" />
    <g
       id="g504" />
    <g
       id="g506" />
    <g
       id="g508" />
    <g
       id="g510" />
    <g
       id="g512" />
    <g
       id="g514" />
    <g
       id="g516" />
    <g
       id="g518" />
    <g
       id="g520" />
    <g
       id="g522" />
    <g
       id="g524" />
    <g
       id="g526" />
    <g
       id="g528" />
    <g
       id="g530" />
    <g
       id="g532" />
    <g
       id="g534" />
    <g
       id="g536" />
    <g
       id="g538" />
    <g
       id="g540" />
    <g
       id="g542" />
    <g
       id="g544" />
    <g
       id="g546" />
    <g
       id="g548" />
    <g
       id="g550" />
    <g
       id="g552" />
    <g
       id="g554" />
    <g
       id="g556" />
    <g
       id="g558" />
    <g
       id="g560" />
    <g
       id="g562" />
    <g
       id="g564" />
    <g
       id="g566" />
    <g
       id="g568" />
    <g
       id="g570" />
    <g
       id="g572" />
    <g
       id="g574" />
    <g
       id="g576" />
    <g
       id="g578" />
    <g
       id="g580" />
    <g
       id="g582" />
    <g
       id="g584" />
    <g
       id="g586" />
    <g
       id="g588" />
    <g
       id="g590" />
    <g
       id="g592" />
    <g
       id="g594" />
    <g
       id="g596" />
    <g
       id="g598" />
    <g
       id="g600" />
    <g
       id="g602" />
    <g
       id="g604" />
    <g
       id="g606" />
    <g
       id="g608" />
    <g
       id="g610" />
    <g
       id="g612" />
    <g
       id="g614" />
    <g
       id="g616" />
    <g
       id="g618" />
    <g
       id="g620" />
    <g
       id="g622" />
    <g
       id="g624" />
    <g
       id="g626" />
    <g
       id="g628" />
    <g
       id="g630" />
    <g
       id="g632" />
    <g
       id="g634" />
    <g
       id="g636" />
    <g
       id="g638" />
    <g
       id="g640" />
    <g
       id="g642" />
    <g
       id="g644" />
    <g
       id="g646" />
    <g
       id="g648" />
    <g
       id="g650" />
    <g
       id="g652" />
    <g
       id="g654" />
    <g
       id="g656" />
    <g
       id="g658" />
    <g
       id="g660" />
    <g
       id="g662" />
    <g
       id="g664" />
    <g
       id="g666" />
    <g
       id="g668" />
    <g
       id="g670" />
    <g
       id="g672" />
    <g
       id="g674" />
    <g
       id="g676" />
    <g
       id="g678" />
    <g
       id="g680" />
    <g
       id="g682" />
    <g
       id="g684" />
    <g
       id="g686" />
    <g
       id="g688" />
    <g
       id="g690" />
    <g
       id="g692" />
    <g
       id="g694" />
    <g
       id="g696" />
    <g
       id="g698" />
    <g
       id="g700" />
    <g
       id="g702" />
    <g
       id="g704" />
    <g
       id="g706" />
    <g
       id="g708" />
    <g
       id="g710" />
    <g
       id="g712" />
    <g
       id="g714" />
    <g
       id="g716" />
    <g
       id="g718" />
    <g
       id="g720" />
    <g
       id="g722" />
    <g
       id="g724" />
    <g
       id="g726" />
    <g
       id="g728" />
    <g
       id="g730" />
    <g
       id="g732" />
    <g
       id="g734" />
    <g
       id="g736" />
    <g
       id="g738" />
    <g
       id="g740" />
    <g
       id="g742" />
    <g
       id="g744" />
    <g
       id="g746" />
    <g
       id="g748" />
    <g
       id="g750" />
    <g
       id="g752" />
    <g
       id="g754" />
    <g
       id="g756" />
    <g
       id="g758" />
    <g
       id="g760" />
    <g
       id="g762" />
    <g
       id="g764" />
    <g
       id="g766" />
    <g
       id="g768" />
    <g
       id="g770" />
    <g
       id="g772" />
    <g
       id="g774" />
    <g
       id="g776" />
    <g
       id="g778" />
    <g
       id="g780" />
    <g
       id="g782" />
    <g
       id="g784" />
    <g
       id="g786" />
    <g
       id="g788" />
    <g
       id="g790" />
    <g
       id="g792" />
    <g
       id="g794" />
    <g
       id="g796" />
  </g>
  <g
     style="fill:#000000;fill-opacity:0;stroke:#000000;stroke-width:47.2441;stroke-linecap:round;stroke-linejoin:round;stroke-opacity:1"
     id="g800"
     transform="translate(-1790.315,-2120.315)" />
  <g
     style="fill:#000000;fill-opacity:0;stroke:#000000;stroke-width:39.3701;stroke-linecap:round;stroke-linejoin:round;stroke-miterlimit:4;stroke-dasharray:none;stroke-opacity:1"
     id="g850"
     transform="translate(-1790.315,-2120.315)">
    <path
       d="M 6410,5640 V 37784.45"
       id="path804"
       sodipodi:nodetypes="cc"
       style="stroke-width:39.3701;stroke-miterlimit:4;stroke-dasharray:none" />
    <path
       d="m 6410,5640 300,-300"
       id="path806"
       style="stroke-width:39.3701;stroke-miterlimit:4;stroke-dasharray:none" />
    <path
       d="m 66800,40850 290,-290"
       id="path814"
       style="stroke-width:39.3701;stroke-miterlimit:4;stroke-dasharray:none" />
    <path
       d="m 66790,10190 300,300"
       id="path816"
       style="stroke-width:39.3701;stroke-miterlimit:4;stroke-dasharray:none" />
    <path
       d="M 36800,2140 13040,5340"
       id="path818"
       style="stroke-width:39.3701;stroke-miterlimit:4;stroke-dasharray:none" />
    <path
       d="M 6410,37784.45 1810,41655"
       id="path826"
       sodipodi:nodetypes="cc"
       style="stroke-width:39.3701;stroke-miterlimit:4;stroke-dasharray:none" />
    <path
       d="m 1810,42155 9465,11395"
       id="path828"
       style="stroke-width:39.3701;stroke-miterlimit:4;stroke-dasharray:none" />
    <path
       d="m 1810,41655 v 500"
       id="path830"
       style="stroke-width:39.3701;stroke-miterlimit:4;stroke-dasharray:none" />
    <path
       d="m 11275,53550 680,70"
       id="path832"
       style="stroke-width:39.3701;stroke-miterlimit:4;stroke-dasharray:none" />
    <path
       d="M 11955,53620 31205,43350"
       id="path834"
       style="stroke-width:39.3701;stroke-miterlimit:4;stroke-dasharray:none" />
    <path
       d="m 31205,43350 16055,-20"
       id="path836"
       style="stroke-width:39.3701;stroke-miterlimit:4;stroke-dasharray:none" />
    <path
       d="M 47260,43330 66800,40850"
       id="path838"
       style="stroke-width:39.3701;stroke-miterlimit:4;stroke-dasharray:none" />
    <path
       d="M 67090,40560 V 10490"
       id="path840"
       style="stroke-width:39.3701;stroke-miterlimit:4;stroke-dasharray:none" />
    <path
       d="M 66790,10190 44230,2140"
       id="path842"
       style="stroke-width:39.3701;stroke-miterlimit:4;stroke-dasharray:none" />
    <path
       d="M 13040,5340 H 6710"
       id="path844"
       sodipodi:nodetypes="cc"
       style="stroke-width:39.3701;stroke-miterlimit:4;stroke-dasharray:none" />
    <path
       d="m 36800,2140 h 7430"
       id="path846"
       style="stroke-width:39.3701;stroke-miterlimit:4;stroke-dasharray:none" />
  </g>
</svg>

<?xml version="1.0" encoding="UTF-8" standalone="no"?>
<svg
   xmlns:dc="http://purl.org/dc/elements/1.1/"
   xmlns:cc="http://creativecommons.org/ns#"
   xmlns:rdf="http://www.w3.org/1999/02/22-rdf-syntax-ns#"
   xmlns:svg="http://www.w3.org/2000/svg"
   xmlns="http://www.w3.org/2000/svg"
   xmlns:sodipodi="http://sodipodi.sourceforge.net/DTD/sodipodi-0.dtd"
   xmlns:inkscape="http://www.inkscape.org/namespaces/inkscape"
   version="1.1"
   width="17.907000cm"
   height="14.427200cm"
   viewBox="0 0 70500 56800"
   id="svg1820"
   sodipodi:docname="YAEMK-bottom.svg"
   inkscape:version="1.0.1 (3bc2e813f5, 2020-09-07)">
  <metadata
     id="metadata1826">
    <rdf:RDF>
      <cc:Work
         rdf:about="">
        <dc:format>image/svg+xml</dc:format>
        <dc:type
           rdf:resource="http://purl.org/dc/dcmitype/StillImage" />
        <dc:title>SVG Picture created as YAEMK-brd.svg date 2021/03/19 11:43:02 </dc:title>
      </cc:Work>
    </rdf:RDF>
  </metadata>
  <defs
     id="defs1824" />
  <sodipodi:namedview
     pagecolor="#ffffff"
     bordercolor="#666666"
     borderopacity="1"
     objecttolerance="10"
     gridtolerance="10"
     guidetolerance="10"
     inkscape:pageopacity="0"
     inkscape:pageshadow="2"
     inkscape:window-width="1914"
     inkscape:window-height="2106"
     id="namedview1822"
     showgrid="false"
     inkscape:zoom="1.3071516"
     inkscape:cx="395.24852"
     inkscape:cy="327.22516"
     inkscape:window-x="26"
     inkscape:window-y="23"
     inkscape:window-maximized="0"
     inkscape:current-layer="g798" />
  <title
     id="title2">SVG Picture created as YAEMK-brd.svg date 2021/03/19 11:43:02 </title>
  <desc
     id="desc4">Picture generated by PCBNEW </desc>
  <g
     style="fill:#000000; fill-opacity:1;stroke:#000000; stroke-opacity:1; stroke-linecap:round; stroke-linejoin:round;"
     transform="translate(0 0) scale(1 1)"
     id="g6" />
  <g
     style="fill:#000000; fill-opacity:0.0;  stroke:#000000; stroke-width:-0.000393701; stroke-opacity:1;  stroke-linecap:round; stroke-linejoin:round;"
     id="g8" />
  <g
     style="fill:#000000; fill-opacity:0.0;  stroke:#000000; stroke-width:47.2441; stroke-opacity:1;  stroke-linecap:round; stroke-linejoin:round;"
     id="g798">
    <circle
       cx="7790"
       cy="35900"
       r="511.811"
       id="circle316" />
    <circle
       cx="40600"
       cy="32900"
       r="511.811"
       id="circle320" />
    <circle
       cx="29050"
       cy="20450"
       r="511.811"
       id="circle324" />
    <circle
       cx="29050"
       cy="4600"
       r="511.811"
       id="circle328" />
    <circle
       cx="51498.8"
       cy="20554.7"
       r="511.811"
       id="circle332" />
    <circle
       cx="54950"
       cy="40900"
       r="511.811"
       id="circle336" />
    <circle
       cx="20950"
       cy="47285"
       r="511.811"
       id="circle340" />
    <circle
       cx="59360.4"
       cy="9230"
       r="511.811"
       id="circle344" />
    <circle
       cx="7790"
       cy="10360"
       r="511.811"
       id="circle348" />
    <g
       id="g360" />
    <g
       id="g362" />
    <g
       id="g364" />
    <g
       id="g366" />
    <g
       id="g368" />
    <g
       id="g370" />
    <g
       id="g372" />
    <g
       id="g374" />
    <g
       id="g376" />
    <g
       id="g378" />
    <g
       id="g380" />
    <g
       id="g382" />
    <g
       id="g384" />
    <g
       id="g386" />
    <g
       id="g388" />
    <g
       id="g390" />
    <g
       id="g392" />
    <g
       id="g394" />
    <g
       id="g396" />
    <g
       id="g398" />
    <g
       id="g400" />
    <g
       id="g402" />
    <g
       id="g404" />
    <g
       id="g406" />
    <g
       id="g408" />
    <g
       id="g410" />
    <g
       id="g412" />
    <g
       id="g414" />
    <g
       id="g416" />
    <g
       id="g418" />
    <g
       id="g420" />
    <g
       id="g422" />
    <g
       id="g424" />
    <g
       id="g426" />
    <g
       id="g428" />
    <g
       id="g430" />
    <g
       id="g432" />
    <g
       id="g434" />
    <g
       id="g436" />
    <g
       id="g438" />
    <g
       id="g440" />
    <g
       id="g442" />
    <g
       id="g444" />
    <g
       id="g446" />
    <g
       id="g448" />
    <g
       id="g450" />
    <g
       id="g452" />
    <g
       id="g454" />
    <g
       id="g456" />
    <g
       id="g458" />
    <g
       id="g460" />
    <g
       id="g462" />
    <g
       id="g464" />
    <g
       id="g466" />
    <g
       id="g468" />
    <g
       id="g470" />
    <g
       id="g472" />
    <g
       id="g474" />
    <g
       id="g476" />
    <g
       id="g478" />
    <g
       id="g480" />
    <g
       id="g482" />
    <g
       id="g484" />
    <g
       id="g486" />
    <g
       id="g488" />
    <g
       id="g490" />
    <g
       id="g492" />
    <g
       id="g494" />
    <g
       id="g496" />
    <g
       id="g498" />
    <g
       id="g500" />
    <g
       id="g502" />
    <g
       id="g504" />
    <g
       id="g506" />
    <g
       id="g508" />
    <g
       id="g510" />
    <g
       id="g512" />
    <g
       id="g514" />
    <g
       id="g516" />
    <g
       id="g518" />
    <g
       id="g520" />
    <g
       id="g522" />
    <g
       id="g524" />
    <g
       id="g526" />
    <g
       id="g528" />
    <g
       id="g530" />
    <g
       id="g532" />
    <g
       id="g534" />
    <g
       id="g536" />
    <g
       id="g538" />
    <g
       id="g540" />
    <g
       id="g542" />
    <g
       id="g544" />
    <g
       id="g546" />
    <g
       id="g548" />
    <g
       id="g550" />
    <g
       id="g552" />
    <g
       id="g554" />
    <g
       id="g556" />
    <g
       id="g558" />
    <g
       id="g560" />
    <g
       id="g562" />
    <g
       id="g564" />
    <g
       id="g566" />
    <g
       id="g568" />
    <g
       id="g570" />
    <g
       id="g572" />
    <g
       id="g574" />
    <g
       id="g576" />
    <g
       id="g578" />
    <g
       id="g580" />
    <g
       id="g582" />
    <g
       id="g584" />
    <g
       id="g586" />
    <g
       id="g588" />
    <g
       id="g590" />
    <g
       id="g592" />
    <g
       id="g594" />
    <g
       id="g596" />
    <g
       id="g598" />
    <g
       id="g600" />
    <g
       id="g602" />
    <g
       id="g604" />
    <g
       id="g606" />
    <g
       id="g608" />
    <g
       id="g610" />
    <g
       id="g612" />
    <g
       id="g614" />
    <g
       id="g616" />
    <g
       id="g618" />
    <g
       id="g620" />
    <g
       id="g622" />
    <g
       id="g624" />
    <g
       id="g626" />
    <g
       id="g628" />
    <g
       id="g630" />
    <g
       id="g632" />
    <g
       id="g634" />
    <g
       id="g636" />
    <g
       id="g638" />
    <g
       id="g640" />
    <g
       id="g642" />
    <g
       id="g644" />
    <g
       id="g646" />
    <g
       id="g648" />
    <g
       id="g650" />
    <g
       id="g652" />
    <g
       id="g654" />
    <g
       id="g656" />
    <g
       id="g658" />
    <g
       id="g660" />
    <g
       id="g662" />
    <g
       id="g664" />
    <g
       id="g666" />
    <g
       id="g668" />
    <g
       id="g670" />
    <g
       id="g672" />
    <g
       id="g674" />
    <g
       id="g676" />
    <g
       id="g678" />
    <g
       id="g680" />
    <g
       id="g682" />
    <g
       id="g684" />
    <g
       id="g686" />
    <g
       id="g688" />
    <g
       id="g690" />
    <g
       id="g692" />
    <g
       id="g694" />
    <g
       id="g696" />
    <g
       id="g698" />
    <g
       id="g700" />
    <g
       id="g702" />
    <g
       id="g704" />
    <g
       id="g706" />
    <g
       id="g708" />
    <g
       id="g710" />
    <g
       id="g712" />
    <g
       id="g714" />
    <g
       id="g716" />
    <g
       id="g718" />
    <g
       id="g720" />
    <g
       id="g722" />
    <g
       id="g724" />
    <g
       id="g726" />
    <g
       id="g728" />
    <g
       id="g730" />
    <g
       id="g732" />
    <g
       id="g734" />
    <g
       id="g736" />
    <g
       id="g738" />
    <g
       id="g740" />
    <g
       id="g742" />
    <g
       id="g744" />
    <g
       id="g746" />
    <g
       id="g748" />
    <g
       id="g750" />
    <g
       id="g752" />
    <g
       id="g754" />
    <g
       id="g756" />
    <g
       id="g758" />
    <g
       id="g760" />
    <g
       id="g762" />
    <g
       id="g764" />
    <g
       id="g766" />
    <g
       id="g768" />
    <g
       id="g770" />
    <g
       id="g772" />
    <g
       id="g774" />
    <g
       id="g776" />
    <g
       id="g778" />
    <g
       id="g780" />
    <g
       id="g782" />
    <g
       id="g784" />
    <g
       id="g786" />
    <g
       id="g788" />
    <g
       id="g790" />
    <g
       id="g792" />
    <g
       id="g794" />
    <g
       id="g796" />
  </g>
  <g
     style="fill:#000000; fill-opacity:0.0;  stroke:#000000; stroke-width:47.2441; stroke-opacity:1;  stroke-linecap:round; stroke-linejoin:round;"
     id="g800" />
  <g
     style="fill:#000000; fill-opacity:0.0;  stroke:#000000; stroke-width:50; stroke-opacity:1;  stroke-linecap:round; stroke-linejoin:round;"
     id="g850">
    <path
       d="M 6410,5640 V 37784.45"
       id="path804"
       sodipodi:nodetypes="cc" />
    <path
       d="M6410 5640 L6710 5340 "
       id="path806" />
    <path
       d="M66800 40850 L67090 40560 "
       id="path814" />
    <path
       d="M66790 10190 L67090 10490 "
       id="path816" />
    <path
       d="M36800 2140 L13040 5340 "
       id="path818" />
    <path
       d="M 6410,37784.45 1810,41655"
       id="path826"
       sodipodi:nodetypes="cc" />
    <path
       d="M1810 42155 L11275 53550 "
       id="path828" />
    <path
       d="M1810 41655 L1810 42155 "
       id="path830" />
    <path
       d="M11275 53550 L11955 53620 "
       id="path832" />
    <path
       d="M11955 53620 L31205 43350 "
       id="path834" />
    <path
       d="M31205 43350 L47260 43330 "
       id="path836" />
    <path
       d="M47260 43330 L66800 40850 "
       id="path838" />
    <path
       d="M67090 40560 L67090 10490 "
       id="path840" />
    <path
       d="M66790 10190 L44230 2140 "
       id="path842" />
    <path
       d="M 13040,5340 H 6710"
       id="path844"
       sodipodi:nodetypes="cc" />
    <path
       d="M36800 2140 L44230 2140 "
       id="path846" />
  </g>
</svg>
